X:180
T:Turks March. JC.179
R:March
S:John Clare,Poet,Helpstone (1793-1864)
N:No TS in the MS. 2/4 added.
O:England
A:Northamptonshire
Z:vmp.P. Headford
M:2/4
L:1/8
Q:1/4=100
K:G
“_should probably be in Key D”\
a>gff|f>edd|edec|d/e/f/e/ d/e/f/g/|!
a>gff|f>edd|{f}e>dec|d2″ Fine”z2:|!
|:e2f2|gg/f/ ee|f2g2|aa/g/ fa|!
aggf|aggf|ab/a/ gf|f>e” D.C.”e2|]

